_assets/img/icons/icon-document-white.svg

<svg width="24" height="32" viewBox="0 0 24 32" xmlns="http://www.w3.org/2000/svg" xmlns:sketch="http://www.bohemiancoding.com/sketch/ns"><title>Group</title><desc>Created with Sketch.</desc><path d="M19.6.7h-19.3v30.9h23.2v-26.5l-3.9-4.4zm-17.4 29v-27.1h15.5v3.9h3.9v23.2h-19.4zm1.8-11.7h15.5v1.9h-15.5zm0-4h15.5v1.9h-15.5zm0-6h7.7v1.9h-7.7zm0-3h3.9v1.9h-3.9zm0 17h15.5v1.9h-15.5zm0 4h15.5v1.9h-15.5z" sketch:type="MSShapeGroup" fill="#fff"/></svg>

<svg width="24" height="32" viewBox="0 0 24 32" xmlns="http://www.w3.org/2000/svg"><title>Group</title><desc>Created with Sketch.</desc><path d="M19.6.7H.3v30.9h23.2V5.1L19.6.7zm-17.4 29V2.6h15.5v3.9h3.9v23.2H2.2zM4 18h15.5v1.9H4zm0-4h15.5v1.9H4zm0-6h7.7v1.9H4zm0-3h3.9v1.9H4zm0 17h15.5v1.9H4zm0 4h15.5v1.9H4z" fill="#fff"/></svg>
